fs/midi_20_regular.svg

<svg viewBox="0 0 20 20" fill="none" xmlns="http://www.w3.org/2000/svg" height="1em" width="1em">
  <path d="M12.5 6C12.2239 6 12 6.22386 12 6.5C12 6.77614 12.2239 7 12.5 7H14.5C14.7761 7 15 6.77614 15 6.5C15 6.22386 14.7761 6 14.5 6H12.5ZM5.75 7.5C6.16421 7.5 6.5 7.16421 6.5 6.75C6.5 6.33579 6.16421 6 5.75 6C5.33579 6 5 6.33579 5 6.75C5 7.16421 5.33579 7.5 5.75 7.5ZM9 6.75146C9 7.16568 8.66421 7.50146 8.25 7.50146C7.83579 7.50146 7.5 7.16568 7.5 6.75146C7.5 6.33725 7.83579 6.00146 8.25 6.00146C8.66421 6.00146 9 6.33725 9 6.75146ZM2 4.5C2 4.22386 2.22386 4 2.5 4H17.5C17.7761 4 18 4.22386 18 4.5V15.5C18 15.7761 17.7761 16 17.5 16H2.5C2.22386 16 2 15.7761 2 15.5V4.5ZM3 5V9H17V5H3ZM8 10H6V13.5C6 13.7761 5.77614 14 5.5 14C5.22386 14 5 13.7761 5 13.5V10H3V15H17V10H15V13.5C15 13.7761 14.7761 14 14.5 14C14.2239 14 14 13.7761 14 13.5V10H12V13.5C12 13.7761 11.7761 14 11.5 14C11.2239 14 11 13.7761 11 13.5V10H9V13.5C9 13.7761 8.77614 14 8.5 14C8.22386 14 8 13.7761 8 13.5V10Z" fill="#212121"/>
</svg>

<svg viewBox="0 0 20 20" fill="none" xmlns="http://www.w3.org/2000/svg" height="1em" width="1em">
  <path d="M12.5 6a.5.5 0 0 0 0 1h2a.5.5 0 0 0 0-1h-2ZM5.75 7.5a.75.75 0 1 0 0-1.5.75.75 0 0 0 0 1.5ZM9 6.751a.75.75 0 1 1-1.5 0 .75.75 0 0 1 1.5 0ZM2 4.5a.5.5 0 0 1 .5-.5h15a.5.5 0 0 1 .5.5v11a.5.5 0 0 1-.5.5h-15a.5.5 0 0 1-.5-.5v-11ZM3 5v4h14V5H3Zm5 5H6v3.5a.5.5 0 0 1-1 0V10H3v5h14v-5h-2v3.5a.5.5 0 0 1-1 0V10h-2v3.5a.5.5 0 0 1-1 0V10H9v3.5a.5.5 0 0 1-1 0V10Z" fill="#212121"/>
</svg>
